icons/24x24_directions_outline.svg

<svg xmlns="http://www.w3.org/2000/svg" width="24" height="24" viewBox="0 0 24 24">
  <path fill-rule="evenodd" d="M13.2579511,3.47661596 C12.5632039,2.78186876 11.4367961,2.78186876 10.7420489,3.47661596 L3.47661596,10.7420489 C2.78186876,11.4367961 2.78186876,12.5632039 3.47661596,13.2579511 L10.7420489,20.523384 C11.4367961,21.2181312 12.5632039,21.2181312 13.2579511,20.523384 L20.523384,13.2579511 C21.2181312,12.5632039 21.2181312,11.4367961 20.523384,10.7420489 L13.2579511,3.47661596 Z M14.6407377,2.09382936 L21.9061706,9.35926232 C23.3646098,10.8177015 23.3646098,13.1822985 21.9061706,14.6407377 L14.6407377,21.9061706 C13.1822985,23.3646098 10.8177015,23.3646098 9.35926232,21.9061706 L2.09382936,14.6407377 C0.635390212,13.1822985 0.635390212,10.8177015 2.09382936,9.35926232 L9.35926232,2.09382936 C10.8177015,0.635390212 13.1822985,0.635390212 14.6407377,2.09382936 Z M13.5857864,10 L13.2928932,9.70710678 C12.9023689,9.31658249 12.9023689,8.68341751 13.2928932,8.29289322 C13.6834175,7.90236893 14.3165825,7.90236893 14.7071068,8.29289322 L16.7071068,10.2928932 C17.0976311,10.6834175 17.0976311,11.3165825 16.7071068,11.7071068 L14.7071068,13.7071068 C14.3165825,14.0976311 13.6834175,14.0976311 13.2928932,13.7071068 C12.9023689,13.3165825 12.9023689,12.6834175 13.2928932,12.2928932 L13.5857864,12 L11,12 L11,15 C11,15.5522847 10.5522847,16 10,16 C9.44771525,16 9,15.5522847 9,15 L9,12 C9,10.8954305 9.8954305,10 11,10 L13.5857864,10 Z"/>
</svg>

<svg width="24" height="24" fill="none" xmlns="http://www.w3.org/2000/svg"><path fill-rule="evenodd" clip-rule="evenodd" d="M13.258 3.477a1.78 1.78 0 0 0-2.516 0l-7.265 7.265a1.78 1.78 0 0 0 0 2.516l7.265 7.265a1.78 1.78 0 0 0 2.516 0l7.265-7.265a1.78 1.78 0 0 0 0-2.516l-7.265-7.265Zm1.383-1.383 7.265 7.265a3.735 3.735 0 0 1 0 5.282l-7.265 7.265a3.735 3.735 0 0 1-5.282 0l-7.265-7.265a3.735 3.735 0 0 1 0-5.282l7.265-7.265a3.735 3.735 0 0 1 5.282 0ZM13.586 10l-.293-.293a1 1 0 0 1 1.414-1.414l2 2a1 1 0 0 1 0 1.414l-2 2a1 1 0 0 1-1.414-1.414l.293-.293H11v3a1 1 0 1 1-2 0v-3a2 2 0 0 1 2-2h2.586Z" fill="#000"/></svg>
